app/dist/common/images/misumi-group.svg

<svg height="18" viewBox="0 0 18 18" width="18" xmlns="http://www.w3.org/2000/svg"><path d="m0 0h18v18h-18z" fill="#f0f3fa"/><path d="m8.05 10.28-3.75-2.95.83-.68 5.52 1.83zm3.27-2.2-2.38-4.15 1.08-.73 3.9 2.99-2.6 1.9z" fill="#00529b"/><path d="m8.08 10.33v4.43l2.52-1.84v-4.4zm3.15-2.13v4.43l2.52-1.83v-4.41z" fill="#ffc523"/><path d="m14 6.01-4.06-3.01-1.21.82v3.8l-3.7-1.15-1.03.82v4.57l4.06 3.13v.01l2.73-2.06v-.76l.21.4.15.29v.01l2.85-2.17v-4.7l-.01.01zm-2.85 6.25v-4.18l-2.15-3.8v3.42l1.8.57h-.01v3.39c.12.16.27.41.37.6zm2.57-6.05-3.79-2.91-.87.58 2.26 3.96 2.01-1.37.4-.27zm.02 4.39v-4.1l-2.33 1.63v4.24zm-9.48-2.95v4.09l3.68 2.86v-4.24l-3.68-2.7zm6.27 1.08v4.1l-2.33 1.77v-4.24zm-5.44-1.99-.74.58 3.73 2.8 2.32-1.6-5.3-1.78z" fill-rule="evenodd"/></svg>

<!-- by TradingView --><svg xmlns="http://www.w3.org/2000/svg" width="18" height="18" viewBox="0 0 18 18"><path fill="#F0F3FA" d="M0 0h18v18H0z"/><path d="M8.05 10.28 4.3 7.33l.83-.68 5.52 1.83-2.6 1.8ZM11.32 8.08 8.94 3.93l1.08-.73 3.9 2.99-2.6 1.9Z" fill="#00529B"/><path d="M8.08 10.33v4.43l2.52-1.84v-4.4l-2.52 1.81ZM11.23 8.2v4.43l2.52-1.83V6.39L11.23 8.2Z" fill="#FFC523"/><path fill-rule="evenodd" d="M14 6.01 9.94 3l-1.21.82v3.8l-3.7-1.15L4 7.29v4.57l4.06 3.13V15l2.73-2.06v-.76l.21.4.15.29v.01L14 10.71v-4.7l-.01.01Zm-2.85 6.25V8.08L9 4.28V7.7l1.8.57h-.01v3.39c.12.16.27.41.37.6Zm2.57-6.05L9.93 3.3l-.87.58 2.26 3.96 2.01-1.37.4-.27Zm.02 4.39V6.5l-2.33 1.63v4.24l2.33-1.77ZM4.26 7.65v4.09l3.68 2.86v-4.24l-3.68-2.7Zm6.27 1.08v4.1L8.2 14.6v-4.24l2.33-1.63ZM5.09 6.74l-.74.58 3.73 2.8 2.32-1.6L5.1 6.74Z"/></svg>
